build/assets/images/Frame4.svg

<svg width="55" height="55" viewBox="0 0 55 55" fill="none" xmlns="http://www.w3.org/2000/svg">
<path d="M42.9688 6.875H34.375C34.375 3.08301 31.292 0 27.5 0C23.708 0 20.625 3.08301 20.625 6.875H12.0312C9.18457 6.875 6.875 9.18457 6.875 12.0312V49.8438C6.875 52.6904 9.18457 55 12.0312 55H42.9688C45.8154 55 48.125 52.6904 48.125 49.8438V12.0312C48.125 9.18457 45.8154 6.875 42.9688 6.875ZM17.1875 45.5469C15.7588 45.5469 14.6094 44.3975 14.6094 42.9688C14.6094 41.54 15.7588 40.3906 17.1875 40.3906C18.6162 40.3906 19.7656 41.54 19.7656 42.9688C19.7656 44.3975 18.6162 45.5469 17.1875 45.5469ZM17.1875 35.2344C15.7588 35.2344 14.6094 34.085 14.6094 32.6562C14.6094 31.2275 15.7588 30.0781 17.1875 30.0781C18.6162 30.0781 19.7656 31.2275 19.7656 32.6562C19.7656 34.085 18.6162 35.2344 17.1875 35.2344ZM17.1875 24.9219C15.7588 24.9219 14.6094 23.7725 14.6094 22.3438C14.6094 20.915 15.7588 19.7656 17.1875 19.7656C18.6162 19.7656 19.7656 20.915 19.7656 22.3438C19.7656 23.7725 18.6162 24.9219 17.1875 24.9219ZM27.5 4.29688C28.9287 4.29688 30.0781 5.44629 30.0781 6.875C30.0781 8.30371 28.9287 9.45312 27.5 9.45312C26.0713 9.45312 24.9219 8.30371 24.9219 6.875C24.9219 5.44629 26.0713 4.29688 27.5 4.29688ZM41.25 43.8281C41.25 44.3008 40.8633 44.6875 40.3906 44.6875H24.9219C24.4492 44.6875 24.0625 44.3008 24.0625 43.8281V42.1094C24.0625 41.6367 24.4492 41.25 24.9219 41.25H40.3906C40.8633 41.25 41.25 41.6367 41.25 42.1094V43.8281ZM41.25 33.5156C41.25 33.9883 40.8633 34.375 40.3906 34.375H24.9219C24.4492 34.375 24.0625 33.9883 24.0625 33.5156V31.7969C24.0625 31.3242 24.4492 30.9375 24.9219 30.9375H40.3906C40.8633 30.9375 41.25 31.3242 41.25 31.7969V33.5156ZM41.25 23.2031C41.25 23.6758 40.8633 24.0625 40.3906 24.0625H24.9219C24.4492 24.0625 24.0625 23.6758 24.0625 23.2031V21.4844C24.0625 21.0117 24.4492 20.625 24.9219 20.625H40.3906C40.8633 20.625 41.25 21.0117 41.25 21.4844V23.2031Z" fill="white"/>
</svg>

<svg width="55" height="55" fill="none" xmlns="http://www.w3.org/2000/svg"><path d="M42.969 6.875h-8.594A6.881 6.881 0 0027.5 0a6.881 6.881 0 00-6.875 6.875h-8.594a5.158 5.158 0 00-5.156 5.156v37.813A5.158 5.158 0 0012.031 55H42.97a5.158 5.158 0 005.156-5.156V12.03a5.158 5.158 0 00-5.156-5.156zM17.187 45.547a2.572 2.572 0 01-2.578-2.578 2.572 2.572 0 012.579-2.578 2.572 2.572 0 012.578 2.578 2.572 2.572 0 01-2.578 2.578zm0-10.313a2.572 2.572 0 01-2.578-2.578 2.572 2.572 0 012.579-2.578 2.572 2.572 0 012.578 2.578 2.572 2.572 0 01-2.578 2.578zm0-10.312a2.572 2.572 0 01-2.578-2.578 2.572 2.572 0 012.579-2.578 2.572 2.572 0 012.578 2.578 2.572 2.572 0 01-2.578 2.578zM27.5 4.297a2.572 2.572 0 012.578 2.578A2.572 2.572 0 0127.5 9.453a2.572 2.572 0 01-2.578-2.578A2.572 2.572 0 0127.5 4.297zm13.75 39.531c0 .473-.387.86-.86.86H24.923a.862.862 0 01-.86-.86V42.11c0-.472.387-.859.86-.859H40.39c.472 0 .859.387.859.86v1.718zm0-10.312a.862.862 0 01-.86.859H24.923a.862.862 0 01-.86-.86v-1.718c0-.473.387-.86.86-.86H40.39c.472 0 .859.387.859.86v1.719zm0-10.313c0 .473-.387.86-.86.86H24.923a.862.862 0 01-.86-.86v-1.719c0-.472.387-.859.86-.859H40.39c.472 0 .859.387.859.86v1.718z" fill="#fff"/></svg>
